X:04031
T: Loch Earn
O: Neil Gow's 2nd collection 1788
R: reel
B: RSCDS 4-3
Z: 1997 by John Chambers <jc:trillian.mit.edu>
M: C|
L: 1/8
%--------------------
K: G
|: "G"[g2d2B2G2]dB G2BG | "Am"E2AG "D7"FDD2 | "G"[g2d2B2G2]dB G2BG | "Am"EA"D7"FD "G"G2Bd :|
|| "C"efge "D7"fgaf | "A7"gfge "D"fddf | "A7"efge "D7"fgaf | "(G)"gf"(D)"ed "G"g2Bd |
| "C"efge "G"dBgB | "Am"ca"G"Bg "D7"AFED | "G"GABG "C"EGce | "D7"dBcA "G"G3z |]
